images/logo.svg

<svg width="197" height="46" viewBox="0 0 197 46" fill="none" xmlns="http://www.w3.org/2000/svg">
<path d="M75 5.72125V6.17957L73.6463 7.3966L72.9773 7.37428L72.469 7.64893L72.6073 8.19994V8.5896L71.4282 9.16464L71.2225 9.96798V11.482L72.1474 12.5823L72.0316 13.0423L71.06 13.432V14.0499L70.3616 14.4241L69.9017 14.6696H69.1393L67.9377 15.8866L68.1227 16.0703L68.3319 17.447L67.5453 19.239L67.2462 19.1927L67.1771 18.6863L66.4302 18.6451L66.9437 19.536L67.5453 20.2467L67.2912 21.3041L66.8745 21.9804H66.4665L66.5287 21.2114L66.1761 20.6586L65.6591 20.3891L65.6056 19.6956L65.7681 18.8236L65.5156 18.6623L64.9365 19.2596L65.1457 19.6956L65.1924 20.6603L65.5623 20.844L65.9548 21.5787L66.0395 21.9787L66.0914 22.2207L65.9288 22.7494L66.5305 22.7957L66.9938 22.9983L66.878 23.575L67.2704 23.8274L67.2479 24.0557L66.8538 24.423L67.547 24.9517V25.64L67.0145 25.961L67.3378 26.5344L67.1079 27.1094L65.2805 27.4064V28.117L64.7498 29.1281L63.894 29.3135L63.7626 29.5349L63.2699 30.3674L63.2941 30.8274L62.1859 31.9964H61.7191L61.3492 32.7998L60.7475 33.1208L60.7372 33.313L60.5868 35.6921L61.0259 36.2672L61.2126 37.0688L61.2368 37.0911L61.6984 37.4825V38.1039L62.8066 39.0446L62.9224 40.1019L63.3373 40.8727L64.1481 42.3747V44.6508H62.4366C62.4366 44.6508 62.4383 44.6302 62.4366 44.625C62.3709 44.4568 61.9508 44.0929 61.9508 44.0929L61.306 44.1427V43.3617H60.8651L60.6801 43.0647V42.6287L60.3102 42.6047L59.5719 41.755L59.6653 41.2726L59.2953 41.319L59.1086 40.9757L59.1328 40.8744L59.2953 40.1723L59.1778 38.9793L58.7853 38.842L57.608 37.5563L56.6122 37.4859L55.4349 38.1743L54.9715 38.2893L54.2558 37.2353L52.3454 37.0946L52.0602 37.074L52.0308 37.0946L51.4361 37.5323L51.1128 37.1649L50.7031 37.5254L48.9863 37.5323V38.267L48.663 38.703L49.5413 39.599L49.0555 39.896L47.8764 39.345L47.2506 40.0813L46.1891 40.0779L45.89 39.0446L44.6643 38.7012V39.2299L44.4119 39.3913L42.7228 38.9553H42.0071L39.7181 39.9646V40.4247L38.7949 41.0426L37.7766 41.2503L37.4066 41.8013L36.8984 41.8477L36.6218 42.4897L36.276 42.5824L36.2985 43.9144C36.2345 44.1341 36.2431 44.3967 36.2812 44.6508C36.3693 45.2241 36.6218 45.7717 36.6218 45.7717L36.3209 46L35.0745 45.6327C34.2705 45.4782 33.7761 45.0507 33.4787 44.6508C33.1572 44.2199 33.0621 43.8217 33.0621 43.8217C32.9705 43.2003 32.8322 42.972 32.8322 42.972C32.0698 42.536 31.4906 40.9293 31.4906 40.9293C31.4837 40.9087 31.475 40.8916 31.4664 40.8744C30.9132 39.5578 30.1266 38.9107 30.1266 38.9107H29.3641L29.1342 38.6583L27.8393 38.612V39.508L27.0302 40.126C25.8287 39.829 24.9781 38.3459 24.9781 38.3459L25.0196 37.534L22.3849 34.367L19.9334 34.1833L19.7277 35.1257L15.3572 34.597L10.3418 31.5896V30.7863H6.82023L6.70612 29.54L6.65771 28.9976L6.05608 28.7693V28.081H5.50113L5.41642 27.5849L4.94791 27.4613L4.06793 26.3833L2.91307 26.246L2.52063 25.925L2.57422 25.7654L2.57595 25.7636L2.75056 25.2573L2.61226 25.0066L2.4947 24.708L2.65721 24.2943L1.919 22.4816L1.70981 22.2962V22.0216L2.0331 21.6783V21.3349L1.50062 20.7136L1.5473 19.3592L1.0615 18.8305L1.10818 18.0958L0.567055 17.2839L0.622378 16.1956L0.784888 15.5021L0 14.625L0.440851 14.0276L1.24821 12.7196L1.15659 12.0776L1.38652 11.6639L1.47988 10.0126L2.95975 7.34853V6.75118L3.20698 6.39242L3.42135 6.08516L3.88468 4.61751V4.20554L4.30132 3.72319L4.04719 3.26315L4.07658 2.51474L4.4621 2.14225L4.09386 2.09075L4.11634 1.54146L3.8864 1.42645V1.06083L4.11634 0.442869H4.43963L4.64882 0.99388L5.41123 1.29256L6.22032 1.42988V1.98261L5.87456 2.46496L5.41123 2.6246L5.50459 3.35928H6.17364L6.63697 2.80827V2.16285L6.82195 1.93455L6.45198 1.4522L6.71822 0.992164L6.82195 0.741548L6.61277 0.533846L6.82023 0L9.68489 0.877155L13.2238 1.81782L14.4357 2.08389L14.5878 2.1165L20.6215 3.0812L20.7528 3.09837L22.2258 3.27345L29.7116 4.17292L36.2224 4.45787L39.2738 4.2536V3.65624L39.8996 4.02187V4.77886L41.1945 5.2389L41.5645 4.82521L42.5343 5.1462L42.8127 5.60624L43.7601 5.92723L44.5 5.6955L46.1165 5.94783L46.5107 5.32987L46.9947 5.28353L47.6413 4.59519L47.5964 4.34286L47.7813 3.99955L49.5378 4.06821L49.8611 4.27592L50.5319 5.53758L51.201 5.56161L51.3393 5.19427L51.9184 5.53758L51.9651 6.13665L52.3351 6.38727L52.3524 6.87133L52.3575 7.055L52.75 7.07732V7.55967L53.1891 7.88066L53.3758 8.29263L54.9473 8.20166L57.3141 8.15359L58.2528 9.07366L58.9911 10.174L58.7127 10.6495H57.6858L57.1671 10.0607L57.0046 10.1534L57.0703 10.6495L57.1205 11.0237L56.6347 11.8957L56.958 13.2277L56.218 13.8251L56.1506 14.9957L55.3882 15.2464V15.6377L56.2439 15.6841L57.468 14.2834L58.6003 14.352L59.5961 13.5727L60.2877 13.595L60.4727 13.2277L60.3119 12.9067L59.5719 12.9994L59.4561 12.4707L60.1943 11.7601L61.4425 11.0958L62.4159 11.1404L62.2758 10.7044L63.8231 10.0624L64.1706 9.35174L65.1422 8.50205L68.8402 7.65065L69.0701 7.03441L69.6406 6.87477L69.6458 6.87305L69.7859 6.5984L69.8083 6.1624L70.1334 6.04739L70.1091 5.56504L69.8325 4.99L70.2146 3.09665H72.7612L73.3697 4.99L73.9247 5.01403L73.9904 5.60452L75 5.72125Z" fill="white"/>
<path d="M90.2773 20.7955V16.8182H106.08V20.7955H100.611V35H95.746V20.7955H90.2773Z" fill="white"/>
<path d="M112.909 27.3295V35H108.009V16.8182H112.732V23.956H112.874C113.181 23.0859 113.693 22.4083 114.409 21.9229C115.126 21.4317 115.987 21.1861 116.993 21.1861C117.958 21.1861 118.795 21.4051 119.505 21.843C120.221 22.281 120.775 22.8847 121.165 23.6541C121.562 24.4235 121.757 25.3054 121.751 26.2997V35H116.851V27.3295C116.857 26.6548 116.688 26.1251 116.345 25.7404C116.007 25.3557 115.525 25.1634 114.898 25.1634C114.3 25.1634 113.821 25.3557 113.46 25.7404C113.098 26.1251 112.915 26.6548 112.909 27.3295Z" fill="white"/>
<path d="M130.705 35.2486C128.521 35.2486 126.801 34.6301 125.547 33.3931C124.298 32.1502 123.673 30.425 123.673 28.2173C123.673 26.8087 123.958 25.5777 124.526 24.5241C125.094 23.4706 125.896 22.6509 126.932 22.065C127.967 21.479 129.19 21.1861 130.598 21.1861C131.971 21.1861 133.164 21.4672 134.176 22.0295C135.194 22.5917 135.981 23.3967 136.537 24.4442C137.1 25.4859 137.381 26.7318 137.381 28.1818V29.3182H128.503V29.5312C128.503 30.1882 128.704 30.7327 129.107 31.1648C129.515 31.5909 130.083 31.804 130.811 31.804C131.314 31.804 131.752 31.7004 132.125 31.4933C132.504 31.2802 132.764 30.9813 132.906 30.5966H137.381C137.15 32.017 136.452 33.1475 135.286 33.9879C134.126 34.8284 132.599 35.2486 130.705 35.2486ZM128.503 26.6193H132.871C132.859 26.0334 132.646 25.5569 132.232 25.19C131.823 24.8171 131.314 24.6307 130.705 24.6307C130.107 24.6307 129.592 24.8142 129.16 25.1811C128.734 25.5481 128.515 26.0275 128.503 26.6193Z" fill="white"/>
<path d="M155.085 16.8182H159.986V28.821C159.986 30.206 159.661 31.3749 159.01 32.3278C158.364 33.2747 157.453 33.9938 156.275 34.4851C155.103 34.9704 153.724 35.2131 152.138 35.2131C150.54 35.2131 149.152 34.9704 147.974 34.4851C146.802 33.9938 145.894 33.2747 145.249 32.3278C144.61 31.3749 144.29 30.206 144.29 28.821V16.8182H149.226V28.608C149.226 29.2827 149.484 29.8301 149.998 30.2504C150.519 30.6706 151.233 30.8807 152.138 30.8807C153.061 30.8807 153.783 30.6706 154.304 30.2504C154.825 29.8301 155.085 29.2827 155.085 28.608V16.8182Z" fill="white"/>
<path d="M172.133 22.5C172.086 21.9081 171.864 21.4465 171.467 21.1151C171.077 20.7836 170.482 20.6179 169.683 20.6179C168.919 20.6179 168.363 20.7481 168.014 21.0085C167.665 21.2689 167.487 21.6004 167.481 22.0028C167.458 22.4349 167.644 22.787 168.04 23.0593C168.443 23.3316 169.073 23.5594 169.931 23.7429L171.423 24.0625C173.429 24.4946 174.876 25.187 175.764 26.1399C176.652 27.0869 177.099 28.2528 177.105 29.6378C177.099 31.4311 176.442 32.8101 175.134 33.7749C173.826 34.7337 172.021 35.2131 169.718 35.2131C168.138 35.2131 166.759 34.9793 165.581 34.5117C164.409 34.0442 163.498 33.325 162.847 32.3544C162.202 31.3778 161.876 30.129 161.87 28.608H166.558C166.599 29.4425 166.886 30.0787 167.419 30.5167C167.958 30.9487 168.7 31.1648 169.647 31.1648C170.44 31.1648 171.038 31.0227 171.441 30.7386C171.849 30.4545 172.056 30.0876 172.062 29.6378C172.056 29.2235 171.852 28.8802 171.45 28.608C171.047 28.3298 170.34 28.0812 169.328 27.8622L167.517 27.4716C165.907 27.1224 164.637 26.5394 163.708 25.7227C162.785 24.9 162.326 23.7784 162.332 22.358C162.326 21.2038 162.634 20.1947 163.255 19.3306C163.883 18.4606 164.75 17.7829 165.857 17.2976C166.969 16.8123 168.245 16.5696 169.683 16.5696C171.151 16.5696 172.42 16.8152 173.491 17.3065C174.563 17.7977 175.388 18.4902 175.968 19.3839C176.554 20.2717 176.85 21.3104 176.856 22.5H172.133Z" fill="white"/>
<path d="M182.997 35H177.671L183.672 16.8182H190.419L196.421 35H191.094L190.046 31.5199H184.045L182.997 35ZM185.164 27.8267H188.928L187.117 21.8253H186.975L185.164 27.8267Z" fill="white"/>
</svg>

<svg width="197" height="46" fill="none" xmlns="http://www.w3.org/2000/svg"><path d="M75 5.721v.459l-1.354 1.217-.669-.023-.508.275.138.55v.39l-1.179.576-.206.803v1.514l.925 1.1-.115.46-.972.39v.618l-.698.374-.46.246h-.763l-1.201 1.217.185.183.209 1.377-.787 1.792-.299-.046-.069-.507-.747-.04.514.89.601.71-.254 1.058-.416.676h-.409l.063-.769-.353-.552-.517-.27-.053-.693.162-.872-.252-.162-.58.598.21.436.046.964.37.184.393.735.085.4.051.242-.162.528.602.047.463.202-.116.577.392.252-.022.229-.394.367.693.529v.688l-.532.321.323.573-.23.575-1.828.297v.711l-.53 1.011-.856.186-.131.22-.493.833.024.46-1.108 1.17h-.467l-.37.803-.601.32-.01.193-.151 2.38.439.574.187.802.024.022.461.392v.62l1.109.942.115 1.057.415.77.811 1.503v2.276h-1.711v-.026c-.066-.168-.486-.532-.486-.532l-.645.05v-.781h-.44l-.186-.297v-.436l-.37-.024-.738-.85.093-.482-.37.046-.186-.343.024-.102.162-.702-.117-1.193-.393-.137-1.177-1.286-.996-.07-1.177.688-.464.115-.715-1.054-1.91-.14-.286-.021-.03.02-.594.438-.323-.367-.41.36-1.717.007v.735l-.323.436.878.896-.485.297-1.18-.551-.625.736-1.062-.003-.299-1.033-1.226-.344v.529l-.252.161-1.69-.436h-.715l-2.289 1.01v.46l-.923.618-1.018.207-.37.551-.509.047-.276.642-.346.092.022 1.332c-.064.22-.055.483-.017.737.088.573.34 1.12.34 1.12l-.3.229-1.246-.367c-.805-.155-1.299-.582-1.596-.982a2.525 2.525 0 01-.417-.83c-.091-.62-.23-.849-.23-.849-.762-.436-1.341-2.043-1.341-2.043-.007-.02-.016-.037-.025-.055-.553-1.316-1.34-1.963-1.34-1.963h-.762l-.23-.253-1.295-.046v.896l-.809.618c-1.201-.297-2.052-1.78-2.052-1.78l.042-.812-2.635-3.167-2.452-.184-.205.943-4.37-.529-5.016-3.007v-.804H6.82l-.114-1.246-.048-.542-.602-.229v-.688h-.555l-.085-.496-.468-.124-.88-1.078-1.155-.137-.392-.321.053-.16.002-.001.175-.507-.139-.25-.117-.299.162-.414-.738-1.812-.21-.186v-.274l.324-.344v-.343l-.532-.621.046-1.355-.485-.529.046-.734-.54-.812.054-1.088.163-.694L0 14.625l.44-.597.808-1.308-.091-.642.23-.414.093-1.651 1.48-2.664V6.75l.247-.359.214-.307.464-1.467v-.412l.416-.483-.254-.46.03-.748.385-.373-.368-.051.022-.55-.23-.115v-.365l.23-.618h.324l.209.55.762.3.81.137v.553l-.346.482-.464.16.094.734h.669l.463-.55v-.646l.185-.228-.37-.483.266-.46.104-.25-.21-.208L6.82 0l2.865.877 3.539.94 1.212.267.152.032 6.034.965.13.017 1.474.175 7.486.9 6.51.285 3.052-.204v-.598l.626.366v.757l1.294.46.37-.414.97.321.279.46.947.321.74-.231 1.617.252.394-.618.484-.046.646-.689-.045-.252.185-.343 1.757.068.323.208.67 1.262.67.024.138-.368.58.344.046.599.37.25.017.484.006.184.392.022v.483l.44.32.186.413 1.571-.091 2.367-.048.939.92.738 1.1-.278.476h-1.027l-.519-.59-.162.093.065.496.05.375-.485.872.323 1.332-.74.597-.067 1.17-.763.251v.392l.856.046 1.224-1.4 1.132.068.996-.78.692.023.185-.367-.161-.321-.74.092-.116-.528.738-.71 1.248-.665.974.044-.14-.436 1.547-.642.348-.71.971-.85 3.698-.851.23-.617.57-.16h.006l.14-.276.022-.436.325-.115-.024-.482-.276-.575.382-1.893h2.546l.609 1.893.555.024.065.59 1.01.117zM90.277 20.796v-3.978h15.803v3.977h-5.469V35h-4.865V20.796h-5.469zM112.909 27.33V35h-4.9V16.818h4.723v7.138h.142c.307-.87.819-1.548 1.535-2.033.717-.491 1.578-.737 2.584-.737.965 0 1.802.22 2.512.657a4.42 4.42 0 011.66 1.811c.397.77.592 1.651.586 2.646V35h-4.9v-7.67c.006-.675-.163-1.205-.506-1.59-.338-.384-.82-.577-1.447-.577-.598 0-1.077.193-1.438.577-.362.385-.545.915-.551 1.59zM130.705 35.249c-2.184 0-3.904-.619-5.158-1.856-1.249-1.243-1.874-2.968-1.874-5.176 0-1.408.285-2.64.853-3.693a6.088 6.088 0 012.406-2.459c1.035-.586 2.258-.879 3.666-.879 1.373 0 2.566.281 3.578.843a5.803 5.803 0 012.361 2.415c.563 1.042.844 2.288.844 3.738v1.136h-8.878v.213c0 .657.201 1.202.604 1.634.408.426.976.639 1.704.639.503 0 .941-.104 1.314-.31.379-.214.639-.513.781-.897h4.475c-.231 1.42-.929 2.55-2.095 3.39-1.16.841-2.687 1.262-4.581 1.262zm-2.202-8.63h4.368c-.012-.586-.225-1.062-.639-1.429-.409-.373-.918-.56-1.527-.56-.598 0-1.113.184-1.545.551-.426.367-.645.846-.657 1.438zM155.085 16.818h4.901v12.003c0 1.385-.325 2.554-.976 3.507-.646.947-1.557 1.666-2.735 2.157-1.172.485-2.551.728-4.137.728-1.598 0-2.986-.243-4.164-.728-1.172-.491-2.08-1.21-2.725-2.157-.639-.953-.959-2.122-.959-3.507V16.818h4.936v11.79c0 .675.258 1.222.772 1.642.521.42 1.235.63 2.14.63.923 0 1.645-.21 2.166-.63.521-.42.781-.967.781-1.642v-11.79zM172.133 22.5c-.047-.592-.269-1.053-.666-1.385-.39-.331-.985-.497-1.784-.497-.764 0-1.32.13-1.669.39s-.527.592-.533.995c-.023.432.163.784.559 1.056.403.273 1.033.5 1.891.684l1.492.32c2.006.432 3.453 1.124 4.341 2.077.888.947 1.335 2.113 1.341 3.498-.006 1.793-.663 3.172-1.971 4.137-1.308.959-3.113 1.438-5.416 1.438-1.58 0-2.959-.234-4.137-.701-1.172-.468-2.083-1.187-2.734-2.158-.645-.976-.971-2.225-.977-3.746h4.688c.041.834.328 1.47.861 1.909.539.432 1.281.648 2.228.648.793 0 1.391-.142 1.794-.426.408-.285.615-.651.621-1.101-.006-.415-.21-.758-.612-1.03-.403-.278-1.11-.527-2.122-.746l-1.811-.39c-1.61-.35-2.88-.933-3.809-1.75-.923-.822-1.382-1.944-1.376-3.364-.006-1.154.302-2.163.923-3.027.628-.87 1.495-1.548 2.602-2.033 1.112-.486 2.388-.728 3.826-.728 1.468 0 2.737.245 3.808.736 1.072.492 1.897 1.184 2.477 2.078.586.888.882 1.926.888 3.116h-4.723zM182.997 35h-5.326l6.001-18.182h6.747L196.421 35h-5.327l-1.048-3.48h-6.001L182.997 35zm2.167-7.173h3.764l-1.811-6.002h-.142l-1.811 6.002z" fill="#fff"/></svg>
